!!!COM: Music21
!!!OTL: Ei Moneixas
!!!OMV: pezas_pasodobles_ei-moneixas_ei-moneixas-partitura.musicxml
**kern
*I"Bagpipes
*I'Bag
*clefG^2
*k[]
*M6/8
=1
!LO:TX:a:t=Presto
*MM180
!LO:TX:a:t=[quarter]=180
2r
8eeL
8ffJ
=||
4.gg
8aaL
8bb
8cccJ
=
4.gg
8aaL
8bb
8cccJ
=
8ggL
8aa
8ggJ
8ffL
8ee
8ddJ
=
4.cc
4cc
8cc
=||
4cc
2r
=||
*M2/4
!LO:TX:a:t=Allegretto
!LO:TX:a:t=Fine
*MM120
!LO:TX:a:t=[quarter]=120
4cc
8eeL
8ffJ
=
8ggL
8ggJ
8aa-XL
8ggJ
!!linebreak:original
=
8ffL
16ggL
16ffJJ
[4ee
=
4ee]
8ffL
8ggJ
=
8aa-XL
8ggJ
[4aa-
=
8aa-L]
8ggJ
8ffL
8ggJ
=
4gg
[4gg
=
2gg]
=
4cc
8eeL
8ffJ
=
8ggL
8ggJ
8aa-XL
8ggJ
=
8ffL
16ggL
16ffJJ
4ee
=
4gg
8ggL
8eeJ
=
4cc
[4cc
!!linebreak:original
=
8ccL]
8ccJ
8ffL
8eeJ
=
8ddL
16eeL
16ddJJ
[4cc
=
4cc]
4r
=||
*M2/4
!LO:TX:a:t=Allegretto
*MM120
!LO:TX:a:t=[quarter]=120
4cc
8eeL
8ffJ
=
8ggL
8ggJ
8aa-XL
8ggJ
!!linebreak:original
=
8ffL
16ggL
16ffJJ
[4ee
=
4ee]
8ffL
8ggJ
=
8aa-XL
8ggJ
[4aa-
=
8aa-L]
8ggJ
8ffL
8ggJ
=
4gg
[4gg
=
2gg]
=
4cc
8eeL
8ffJ
=
8ggL
8ggJ
8aa-XL
8ggJ
=
8ffL
16ggL
16ffJJ
4ee
=
4gg
8ggL
8eeJ
=
4cc
[4cc
!!linebreak:original
=
8ccL]
8ccJ
8ffL
8eeJ
=
8ddL
16eeL
16ddJJ
[4cc
=||
*M6/8
!LO:TX:a:t=Presto
*MM180
!LO:TX:a:t=[quarter]=180
8cc]
4r
4gg
8gg
=||
4gg
8ee
4gg
8gg
=
4gg
8ee
4gg
8gg
=
8ggL
8ff
8ggJ
8aaL
8gg
8aaJ
!!linebreak:original
=
4.ff
4ff
8ff
=
4ff
8dd
4ff
8ff
=
4ff
8dd
4ff
8ff
=
8ffL
8ee
8ffJ
8aaL
8gg
8ffJ
=
4.ee
4gg
8gg
=||
4gg
8ee
4gg
8gg
=
4gg
8ee
4gg
8gg
!!linebreak:original
=
8ggL
8ff
8ggJ
8aaL
8gg
8aaJ
!!linebreak:original
=
4.ff
4ff
8ff
=
4ff
8dd
4ff
8ff
=
4ff
8dd
4ff
8ff
=
8ffL
8ee
8ffJ
8aaL
8gg
8ffJ
=
[2.ee
=||
*M2/4
!LO:TX:a:t=Allegretto
*MM120
!LO:TX:a:t=[quarter]=120
4ee]
8eeL
8ggJ
=||
4.ccc
8aa
=
4.bb
8gg
!!linebreak:original
=
4aa
[4aa
=
4aa]
8ffL
8ggJ
=
4.bb
8gg
=
4.aa
8ff
=
4gg
[4gg
=
4gg]
8eeL
8ffJ
=
4gg
8eeL
8ggJ
=
8ee
4gg
8ee
=
4gg
[4ff
=
4ff]
8ffL
8ggJ
=
4aa
8ffL
8aaJ
!!linebreak:original
=
8ff
4aa
8ff
!!pagebreak:original
=
4aa
[4gg
=
4gg]
8eeL
8ggJ
=||
4.ccc
8aa
=
4.bb
8gg
!!linebreak:original
=
4aa
[4aa
=
4aa]
8ffL
8ggJ
=
4.bb
8gg
=
4.aa
8ff
=
4gg
[4gg
=
4gg]
8eeL
8ffJ
=
4gg
8eeL
8ggJ
=
8ee
4gg
8ee
=
4gg
[4ff
=
4ff]
8bbL
8aaJ
=
4gg
8ggL
8ffJ
!!linebreak:original
=
8gg
4aa
16ggLL
16ffJJ
=
4ee
4gg
=||
*M6/8
!LO:TX:a:t=Presto
*MM180
!LO:TX:a:t=[quarter]=180
4ee
4r
8eeL
8ffJ
==
*-
